icon-themes/sifr_svg/cmd/sc_selectdb.svg

<svg viewBox="0 0 16 16" xmlns="http://www.w3.org/2000/svg"><path d="m2 0v15h.8007812l3.1992188-3.300781 1.8007812 2.5c.2071475.301305.4840897.511705.7910157.640625-.3422159-.348964-.5917969-.785065-.5917969-1.339844v-.001953c.0010438-.384592.1521758-.70694.3457031-.998047-.1935278-.291107-.3446614-.613546-.3457031-.998047v-.001953-.001953c.0006373-.455332.1762615-.836523.4316406-1.158203-.2620512-.3971479-.4303606-.8461287-.4316406-1.3378909v-.0019531c0-.957615.585992-1.7539429 1.3242188-2.2460938.3024721-.201648.64308-.3544277 1.0019532-.4765624l-7.6269532-6.2773438zm10 7c-1.656854 0-3 .89543-3 2 .0014.537594.3272869 1.052189.9042969 1.427734-.577736.282014-.9037319.668562-.9042969 1.072266.001.369206.2743001.725259.7675781 1-.493278.274741-.7665761.630794-.7675781 1 0 .828427 1.343146 1.5 3 1.5s3-.671573 3-1.5c-.001-.369206-.2743-.725259-.767578-1 .493278-.274741.766576-.630794.767578-1-.000588-.402741-.325059-.788446-.900391-1.070312.576301-.376455.900854-.891796.900391-1.429688 0-1.10457-1.343146-2-3-2zm0 4c1.104569 0 2 .223858 2 .5s-.895431.5-2 .5-2-.223858-2-.5.895431-.5 2-.5zm0 2c1.104569 0 2 .223858 2 .5s-.895431.5-2 .5-2-.223858-2-.5.895431-.5 2-.5z" fill="#555753"/></svg>

<svg xmlns="http://www.w3.org/2000/svg" viewBox="0 0 16 16">
  <path
     style="fill:#555753"
     d="M 2 0 L 2 15 L 2.8007812 15 L 6 11.699219 L 7.8007812 14.199219 C 8.0079287 14.500524 8.2848709 14.710924 8.5917969 14.839844 C 8.249581 14.49088 8 14.054779 8 13.5 L 8 13.498047 C 8.0010438 13.113455 8.1521758 12.791107 8.3457031 12.5 C 8.1521753 12.208893 8.0010417 11.886454 8 11.501953 L 8 11.5 L 8 11.498047 C 8.0006373 11.042715 8.1762615 10.661524 8.4316406 10.339844 C 8.1695894 9.9426961 8.00128 9.4937153 8 9.0019531 L 8 9 C 8 8.042385 8.585992 7.2460571 9.3242188 6.7539062 C 9.6266909 6.5522582 9.9672988 6.3994785 10.326172 6.2773438 L 2.6992188 0 L 2 0 z M 12 7 C 10.343146 7 9 7.89543 9 9 C 9.0014 9.537594 9.3272869 10.052189 9.9042969 10.427734 C 9.3265609 10.709748 9.000565 11.096296 9 11.5 C 9.001 11.869206 9.2743001 12.225259 9.7675781 12.5 C 9.2743001 12.774741 9.001002 13.130794 9 13.5 C 9 14.328427 10.343146 15 12 15 C 13.656854 15 15 14.328427 15 13.5 C 14.999 13.130794 14.7257 12.774741 14.232422 12.5 C 14.7257 12.225259 14.998998 11.869206 15 11.5 C 14.999412 11.097259 14.674941 10.711554 14.099609 10.429688 C 14.67591 10.053233 15.000463 9.537892 15 9 C 15 7.89543 13.656854 7 12 7 z M 12 11 C 13.104569 11 14 11.223858 14 11.5 C 14 11.776142 13.104569 12 12 12 C 10.895431 12 10 11.776142 10 11.5 C 10 11.223858 10.895431 11 12 11 z M 12 13 C 13.104569 13 14 13.223858 14 13.5 C 14 13.776142 13.104569 14 12 14 C 10.895431 14 10 13.776142 10 13.5 C 10 13.223858 10.895431 13 12 13 z "
     />
</svg>
